{
 "compressionlevel": -1,
 "width": 20,
 "height": 14,
 "tilewidth": 16,
 "tileheight": 16,
 "infinite": false,
 "orientation": "orthogonal",
 "renderorder": "right-down",
 "backgroundcolor": "#241a13",
 "type": "map",
 "version": "1.10",
 "tiledversion": "1.12.2",
 "nextlayerid": 3,
 "nextobjectid": 20,
 "tilesets": [
  {
   "firstgid": 1,
   "source": "tilesets/Snow.tsx"
  }
 ],
 "layers": [
  {
   "id": 1,
   "name": "floor",
   "type": "tilelayer",
   "visible": true,
   "opacity": 1,
   "x": 0,
   "y": 0,
   "width": 20,
   "height": 14,
   "data": [
    0,
    0,
    0,
    0,
    0,
    0,
    0,
    0,
    0,
    0,
    0,
    0,
    0,
    0,
    0,
    0,
    0,
    0,
    0,
    0,
    0,
    0,
    0,
    0,
    0,
    0,
    0,
    0,
    0,
    0,
    0,
    0,
    0,
    0,
    0,
    0,
    0,
    0,
    0,
    0,
    0,
    0,
    0,
    0,
    0,
    0,
    0,
    0,
    0,
    0,
    0,
    0,
    0,
    0,
    0,
    0,
    0,
    0,
    0,
    0,
    0,
    0,
    0,
    0,
    0,
    0,
    0,
    0,
    0,
    0,
    0,
    0,
    0,
    0,
    0,
    0,
    0,
    0,
    0,
    0,
    0,
    0,
    0,
    0,
    0,
    0,
    0,
    0,
    0,
    0,
    0,
    0,
    0,
    0,
    0,
    0,
    0,
    0,
    0,
    0,
    0,
    0,
    0,
    0,
    0,
    0,
    0,
    0,
    0,
    0,
    0,
    0,
    0,
    0,
    0,
    0,
    0,
    0,
    0,
    0,
    0,
    0,
    0,
    0,
    0,
    0,
    0,
    0,
    0,
    0,
    0,
    0,
    0,
    0,
    0,
    0,
    0,
    0,
    0,
    0,
    0,
    0,
    0,
    0,
    0,
    0,
    0,
    0,
    0,
    0,
    0,
    0,
    0,
    0,
    0,
    0,
    0,
    0,
    0,
    0,
    0,
    0,
    0,
    0,
    0,
    0,
    0,
    0,
    0,
    0,
    0,
    0,
    0,
    0,
    0,
    0,
    0,
    0,
    0,
    0,
    0,
    0,
    0,
    0,
    0,
    0,
    0,
    0,
    0,
    0,
    0,
    0,
    0,
    0,
    0,
    0,
    0,
    0,
    0,
    0,
    0,
    0,
    0,
    0,
    0,
    0,
    0,
    0,
    0,
    0,
    0,
    0,
    0,
    0,
    0,
    0,
    0,
    0,
    0,
    0,
    0,
    0,
    0,
    0,
    0,
    0,
    0,
    0,
    0,
    0,
    0,
    0,
    0,
    0,
    0,
    0,
    0,
    0,
    0,
    0,
    0,
    0,
    0,
    0,
    0,
    0,
    0,
    0,
    0,
    0,
    0,
    0,
    0,
    0,
    0,
    0,
    0,
    0,
    0,
    0,
    0,
    0,
    0,
    0,
    0,
    0,
    0,
    0,
    0,
    0,
    0,
    0,
    0,
    0,
    0,
    0,
    0,
    0,
    0,
    0
   ]
  },
  {
   "id": 2,
   "name": "Collisions",
   "type": "objectgroup",
   "visible": true,
   "opacity": 1,
   "draworder": "topdown",
   "x": 0,
   "y": 0,
   "objects": [
    {
     "id": 1,
     "name": "",
     "type": "",
     "rotation": 0,
     "visible": true,
     "x": 0,
     "y": 0,
     "width": 320,
     "height": 48
    },
    {
     "id": 2,
     "name": "",
     "type": "",
     "rotation": 0,
     "visible": true,
     "x": 0,
     "y": 48,
     "width": 16,
     "height": 176
    },
    {
     "id": 3,
     "name": "",
     "type": "",
     "rotation": 0,
     "visible": true,
     "x": 304,
     "y": 48,
     "width": 16,
     "height": 176
    },
    {
     "id": 4,
     "name": "",
     "type": "",
     "rotation": 0,
     "visible": true,
     "x": 0,
     "y": 208,
     "width": 136,
     "height": 16
    },
    {
     "id": 5,
     "name": "",
     "type": "",
     "rotation": 0,
     "visible": true,
     "x": 184,
     "y": 208,
     "width": 136,
     "height": 16
    }
   ]
  }
 ]
}