{
  "compressionlevel": -1,
  "width": 15,
  "height": 14,
  "infinite": false,
  "layers": [
    {
      "data": [
        1, 2, 3, 4, 5, 6, 7, 8, 9, 10, 11, 12, 13, 14, 15, 16, 17, 18, 19, 20,
        21, 22, 23, 24, 25, 26, 27, 28, 29, 30, 31, 32, 33, 34, 35, 36, 37, 38,
        39, 40, 41, 42, 43, 44, 45, 46, 47, 48, 49, 50, 51, 52, 53, 54, 55, 56,
        57, 58, 59, 60, 61, 62, 63, 64, 65, 66, 67, 68, 69, 70, 71, 72, 73, 74,
        75, 76, 77, 78, 79, 80, 81, 82, 83, 84, 85, 86, 87, 88, 89, 90, 91, 92,
        93, 94, 95, 96, 97, 98, 99, 100, 101, 102, 103, 104, 105, 106, 107, 108,
        109, 110, 111, 112, 113, 114, 115, 116, 117, 118, 119, 120, 121, 122,
        123, 124, 125, 126, 127, 128, 129, 130, 131, 132, 133, 134, 135, 136,
        137, 138, 139, 140, 141, 142, 143, 144, 145, 146, 147, 148, 149, 150,
        151, 152, 153, 154, 155, 156, 157, 158, 159, 160, 161, 162, 163, 164,
        165, 166, 167, 168, 169, 170, 171, 172, 173, 174, 175, 176, 177, 178,
        179, 180, 181, 182, 183, 184, 185, 186, 187, 188, 189, 190, 191, 192,
        193, 194, 195, 196, 197, 198, 199, 200, 201, 202, 203, 204, 205, 206,
        207, 208, 209, 210
      ],
      "height": 14,
      "id": 1,
      "name": "map",
      "opacity": 1,
      "type": "tilelayer",
      "visible": true,
      "width": 15,
      "x": 0,
      "y": 0
    },
    {
      "id": 2,
      "name": "Collisions",
      "opacity": 1,
      "type": "objectgroup",
      "visible": true,
      "x": 0,
      "y": 0,
      "objects": [
        {
          "id": 1,
          "name": "top wall",
          "type": "",
          "x": 0,
          "y": 0,
          "width": 240,
          "height": 64,
          "rotation": 0,
          "visible": true
        },
        {
          "id": 2,
          "name": "left wall",
          "type": "",
          "x": 8,
          "y": 0,
          "width": 12,
          "height": 224,
          "rotation": 0,
          "visible": true
        },
        {
          "id": 3,
          "name": "right wall",
          "type": "",
          "x": 210,
          "y": 0,
          "width": 45,
          "height": 224,
          "rotation": 0,
          "visible": true
        },
        {
          "id": 4,
          "name": "bottom wall left",
          "type": "",
          "x": 15,
          "y": 195,
          "width": 55,
          "height": 31,
          "rotation": 0,
          "visible": true
        },
        {
          "id": 5,
          "name": "bottom wall right",
          "type": "",
          "x": 110,
          "y": 193,
          "width": 123,
          "height": 31,
          "rotation": 0,
          "visible": true
        }
      ]
    }
  ],
  "nextlayerid": 3,
  "nextobjectid": 6,
  "orientation": "orthogonal",
  "renderorder": "right-down",
  "tiledversion": "1.12.2",
  "tileheight": 16,
  "tilewidth": 16,
  "tilesets": [{ "firstgid": 1, "source": "room_grassmap.tsj" }],
  "type": "map",
  "version": "1.10"
}
