{
 "compressionlevel": -1,
 "height": 30,
 "infinite": false,
 "nextlayerid": 4,
 "nextobjectid": 1,
 "orientation": "orthogonal",
 "renderorder": "right-down",
 "tiledversion": "1.12.2",
 "tileheight": 16,
 "tilewidth": 16,
 "type": "map",
 "version": "1.10",
 "width": 40,
 "tilesets": [
  {
   "firstgid": 1,
   "source": "tilesets/Snow.tsx"
  },
  {
   "firstgid": 7019,
   "source": "tilesets/snowTile.tsj"
  },
  {
   "firstgid": 13163,
   "source": "tilesets/Tiles.tsx"
  }
 ],
 "layers": [
  {
   "data": [
    7892,
    7892,
    7892,
    7892,
    7892,
    7892,
    7892,
    7892,
    7892,
    7892,
    7892,
    7892,
    7892,
    7892,
    7892,
    7892,
    7892,
    7892,
    7892,
    7892,
    7892,
    7892,
    7892,
    7892,
    7892,
    7892,
    7892,
    7892,
    7892,
    7892,
    7892,
    7892,
    7892,
    7892,
    7892,
    7892,
    7892,
    7892,
    7892,
    7892,
    7892,
    7892,
    7892,
    7892,
    7892,
    7892,
    7892,
    7892,
    7892,
    7892,
    7892,
    7892,
    7892,
    7892,
    7892,
    7892,
    7892,
    7892,
    7892,
    7892,
    7892,
    7892,
    7892,
    7892,
    7892,
    7892,
    7892,
    7892,
    7892,
    7892,
    7892,
    7892,
    7892,
    7892,
    7892,
    7892,
    7892,
    7892,
    7892,
    7892,
    7892,
    7892,
    7892,
    7892,
    7892,
    7892,
    7892,
    7892,
    7892,
    7892,
    7892,
    7892,
    7892,
    7892,
    7892,
    7892,
    7892,
    7892,
    7892,
    7892,
    7892,
    7892,
    7892,
    7892,
    7892,
    7892,
    7892,
    7892,
    7892,
    7892,
    7892,
    7892,
    7892,
    7892,
    7892,
    7892,
    7892,
    7892,
    7892,
    7892,
    7892,
    7892,
    7892,
    7892,
    7892,
    7892,
    7892,
    7892,
    7892,
    7892,
    7892,
    7892,
    7892,
    7892,
    7892,
    7892,
    7892,
    7892,
    7892,
    7892,
    7892,
    7892,
    7892,
    7892,
    7892,
    7892,
    7892,
    7892,
    7892,
    7892,
    7892,
    7892,
    7892,
    7892,
    7892,
    7892,
    7892,
    7892,
    7892,
    7892,
    7892,
    7892,
    7892,
    7892,
    7892,
    7892,
    7892,
    7892,
    7892,
    7892,
    7892,
    7892,
    7892,
    7892,
    7892,
    7892,
    7892,
    7892,
    7892,
    7892,
    7892,
    7892,
    7892,
    7892,
    7892,
    7892,
    7892,
    7892,
    7892,
    7892,
    7892,
    7892,
    7892,
    7892,
    7892,
    7892,
    7892,
    7892,
    7892,
    7892,
    7892,
    7892,
    7892,
    7892,
    7892,
    7892,
    7892,
    7892,
    7892,
    7892,
    7892,
    7892,
    7892,
    7892,
    7892,
    7892,
    7892,
    7892,
    7892,
    7892,
    7892,
    7892,
    7892,
    7892,
    7892,
    7892,
    7892,
    7892,
    7892,
    7892,
    7892,
    7892,
    7892,
    7892,
    7892,
    7892,
    7892,
    7892,
    7892,
    7892,
    7892,
    7892,
    7892,
    7892,
    7892,
    7892,
    7892,
    7892,
    7892,
    7892,
    7892,
    7892,
    7892,
    7892,
    7892,
    7892,
    7892,
    7892,
    7892,
    7892,
    7892,
    7892,
    7892,
    7892,
    7892,
    7892,
    7892,
    7892,
    7892,
    7892,
    7892,
    7892,
    7892,
    7892,
    7892,
    7892,
    7892,
    7892,
    7892,
    7892,
    7892,
    7892,
    7892,
    7892,
    7892,
    7892,
    7892,
    7892,
    7892,
    7892,
    7892,
    7892,
    7892,
    7892,
    7892,
    7892,
    7892,
    7892,
    7892,
    7892,
    7892,
    7892,
    7892,
    7892,
    7892,
    7892,
    7892,
    7892,
    7892,
    7892,
    7892,
    7892,
    7892,
    7892,
    7892,
    7892,
    7892,
    7892,
    7892,
    7892,
    7892,
    7892,
    7892,
    7892,
    7892,
    7892,
    7892,
    7892,
    7892,
    7892,
    7892,
    7892,
    7892,
    7892,
    7892,
    7892,
    7892,
    7892,
    7892,
    7892,
    7892,
    7892,
    7892,
    7892,
    7892,
    7892,
    7892,
    7892,
    7892,
    7892,
    7892,
    7892,
    7892,
    7892,
    7892,
    7892,
    7892,
    7892,
    7892,
    7892,
    7892,
    7892,
    7892,
    7892,
    7892,
    7892,
    7892,
    7892,
    7892,
    7892,
    7892,
    7892,
    7892,
    7892,
    7892,
    7892,
    7892,
    7892,
    7892,
    7892,
    7892,
    7892,
    7892,
    7892,
    7892,
    7892,
    7892,
    7892,
    7892,
    7892,
    7892,
    7892,
    7892,
    7892,
    7892,
    7892,
    7892,
    7892,
    7892,
    7892,
    7892,
    7892,
    7892,
    7892,
    7892,
    7892,
    7892,
    7892,
    7892,
    7892,
    7892,
    7892,
    7892,
    7892,
    7892,
    7892,
    7892,
    7892,
    7892,
    7892,
    7892,
    7892,
    7892,
    7892,
    7892,
    7892,
    7892,
    7892,
    7892,
    7892,
    7892,
    7892,
    7892,
    7892,
    7892,
    7892,
    7892,
    7892,
    7892,
    7892,
    7892,
    7892,
    7892,
    7892,
    7892,
    7892,
    7892,
    7892,
    7892,
    7892,
    7892,
    7892,
    7892,
    7892,
    7892,
    7892,
    7892,
    7892,
    7892,
    7892,
    7892,
    7892,
    7892,
    7892,
    7892,
    7892,
    7892,
    7892,
    7892,
    7892,
    7892,
    7892,
    7892,
    7892,
    7892,
    7892,
    7892,
    7892,
    7892,
    7892,
    7892,
    7892,
    7892,
    7892,
    7892,
    7892,
    7892,
    7892,
    7892,
    7892,
    7892,
    7892,
    7892,
    7892,
    7892,
    7892,
    7892,
    7892,
    7892,
    7892,
    7892,
    7892,
    7892,
    7892,
    7892,
    7892,
    7892,
    7892,
    7892,
    7892,
    7892,
    7892,
    7892,
    7892,
    7892,
    7892,
    7892,
    7892,
    7892,
    7892,
    7892,
    7892,
    7892,
    7892,
    7892,
    7892,
    7892,
    7892,
    7892,
    7892,
    7892,
    7892,
    7892,
    7892,
    7892,
    7892,
    7892,
    7892,
    7892,
    7892,
    7892,
    7892,
    7892,
    7892,
    7892,
    7892,
    7892,
    7892,
    7892,
    7892,
    7892,
    7892,
    7892,
    7892,
    7892,
    7892,
    7892,
    7892,
    7892,
    7892,
    7892,
    7892,
    7892,
    7892,
    7892,
    7892,
    7892,
    7892,
    7892,
    7892,
    7892,
    7892,
    7892,
    7892,
    7892,
    7892,
    7892,
    7892,
    7892,
    7892,
    7892,
    7892,
    7892,
    7892,
    7892,
    7892,
    7892,
    7892,
    7892,
    7892,
    7892,
    7892,
    7892,
    7892,
    7892,
    7892,
    7892,
    7892,
    7892,
    7892,
    7892,
    7892,
    7892,
    7892,
    7892,
    7892,
    7892,
    7892,
    7892,
    7892,
    7892,
    7892,
    7892,
    7892,
    7892,
    7892,
    7892,
    7892,
    7892,
    7892,
    7892,
    7892,
    7892,
    7892,
    7892,
    7892,
    7892,
    7892,
    7892,
    7892,
    7892,
    7892,
    7892,
    7892,
    7892,
    7892,
    7892,
    7892,
    7892,
    7892,
    7892,
    7892,
    7892,
    7892,
    7892,
    7892,
    7892,
    7892,
    7892,
    7892,
    7892,
    7892,
    7892,
    7892,
    7892,
    7892,
    7892,
    7892,
    7892,
    7892,
    7892,
    7892,
    7892,
    7892,
    7892,
    7892,
    7892,
    7892,
    7892,
    7892,
    7892,
    7892,
    7892,
    7892,
    7892,
    7892,
    7892,
    7892,
    7892,
    7892,
    7892,
    7892,
    7892,
    7892,
    7892,
    7892,
    7892,
    7892,
    7892,
    7892,
    7892,
    7892,
    7892,
    7892,
    7892,
    7892,
    7892,
    7892,
    7892,
    7892,
    7892,
    7892,
    7892,
    7892,
    7892,
    7892,
    7892,
    7892,
    7892,
    7892,
    7892,
    7892,
    7892,
    7892,
    7892,
    7892,
    7892,
    7892,
    7892,
    7892,
    7892,
    7892,
    7892,
    7892,
    7892,
    7892,
    7892,
    7892,
    7892,
    7892,
    7892,
    7892,
    7892,
    7892,
    7892,
    7892,
    7892,
    7892,
    7892,
    7892,
    7892,
    7892,
    7892,
    7892,
    7892,
    7892,
    7892,
    7892,
    7892,
    7892,
    7892,
    7892,
    7892,
    7892,
    7892,
    7892,
    7892,
    7892,
    7892,
    7892,
    7892,
    7892,
    7892,
    7892,
    7892,
    7892,
    7892,
    7892,
    7892,
    7892,
    7892,
    7892,
    7892,
    7892,
    7892,
    7892,
    7892,
    7892,
    7892,
    7892,
    7892,
    7892,
    7892,
    7892,
    7892,
    7892,
    7892,
    7892,
    7892,
    7892,
    7892,
    7892,
    7892,
    7892,
    7892,
    7892,
    7892,
    7892,
    7892,
    7892,
    7892,
    7892,
    7892,
    7892,
    7892,
    7892,
    7892,
    7892,
    7892,
    7892,
    7892,
    7892,
    7892,
    7892,
    7892,
    7892,
    7892,
    7892,
    7892,
    7892,
    7892,
    7892,
    7892,
    7892,
    7892,
    7892,
    7892,
    7892,
    7892,
    7892,
    7892,
    7892,
    7892,
    7892,
    7892,
    7892,
    7892,
    7892,
    7892,
    7892,
    7892,
    7892,
    7892,
    7892,
    7892,
    7892,
    7892,
    7892,
    7892,
    7892,
    7892,
    7892,
    7892,
    7892,
    7892,
    7892,
    7892,
    7892,
    7892,
    7892,
    7892,
    7892,
    7892,
    7892,
    7892,
    7892,
    7892,
    7892,
    7892,
    7892,
    7892,
    7892,
    7892,
    7892,
    7892,
    7892,
    7892,
    7892,
    7892,
    7892,
    7892,
    7892,
    7892,
    7892,
    7892,
    7892,
    7892,
    7892,
    7892,
    7892,
    7892,
    7892,
    7892,
    7892,
    7892,
    7892,
    7892,
    7892,
    7892,
    7892,
    7892,
    7892,
    7892,
    7892,
    7892,
    7892,
    7892,
    7892,
    7892,
    7892,
    7892,
    7892,
    7892,
    7892,
    7892,
    7892,
    7892,
    7892,
    7892,
    7892,
    7892,
    7892,
    7892,
    7892,
    7892,
    7892,
    7892,
    7892,
    7892,
    7892,
    7892,
    7892,
    7892,
    7892,
    7892,
    7892,
    7892,
    7892,
    7892,
    7892,
    7892,
    7892,
    7892,
    7892,
    7892,
    7892,
    7892,
    7892,
    7892,
    7892,
    7892,
    7892,
    7892,
    7892,
    7892,
    7892,
    7892,
    7892,
    7892,
    7892,
    7892,
    7892,
    7892,
    7892,
    7892,
    7892,
    7892,
    7892,
    7892,
    7892,
    7892,
    7892,
    7892,
    7892,
    7892,
    7892,
    7892,
    7892,
    7892,
    7892,
    7892,
    7892,
    7892,
    7892,
    7892,
    7892,
    7892,
    7892,
    7892,
    7892,
    7892,
    7892,
    7892,
    7892,
    7892,
    7892,
    7892,
    7892,
    7892,
    7892,
    7892,
    7892,
    7892,
    7892,
    7892,
    7892,
    7892,
    7892,
    7892,
    7892,
    7892,
    7892,
    7892,
    7892,
    7892,
    7892,
    7892,
    7892,
    7892,
    7892,
    7892,
    7892,
    7892,
    7892,
    7892,
    7892,
    7892,
    7892,
    7892,
    7892,
    7892,
    7892,
    7892,
    7892,
    7892,
    7892,
    7892,
    7892,
    7892,
    7892,
    7892,
    7892,
    7892,
    7892,
    7892,
    7892,
    7892,
    7892,
    7892,
    7892,
    7892,
    7892,
    7892,
    7892,
    7892,
    7892,
    7892,
    7892,
    7892,
    7892,
    7892,
    7892,
    7892,
    7892,
    7892,
    7892,
    7892,
    7892,
    7892,
    7892,
    7892,
    7892,
    7892,
    7892,
    7892,
    7892,
    7892,
    7892,
    7892,
    7892,
    7892,
    7892,
    7892,
    7892,
    7892,
    7892,
    7892,
    7892,
    7892,
    7892,
    7892,
    7892,
    7892,
    7892,
    7892,
    7892,
    7892,
    7892,
    7892,
    7892,
    7892,
    7892,
    7892,
    7892,
    7892,
    7892,
    7892,
    7892,
    7892,
    7892,
    7892,
    7892,
    7892,
    7892,
    7892,
    7892,
    7892,
    7892,
    7892,
    7892,
    7892,
    7892,
    7892,
    7892,
    7892,
    7892,
    7892,
    7892,
    7892,
    7892,
    7892,
    7892,
    7892,
    7892,
    7892,
    7892,
    7892,
    7892,
    7892,
    7892,
    7892,
    7892,
    7892,
    7892,
    7892,
    7892,
    7892,
    7892,
    7892,
    7892,
    7892,
    7892,
    7892,
    7892,
    7892,
    7892,
    7892,
    7892,
    7892,
    7892,
    7892,
    7892,
    7892,
    7892,
    7892,
    7892,
    7892,
    7892,
    7892,
    7892,
    7892,
    7892,
    7892,
    7892,
    7892,
    7892,
    7892,
    7892,
    7892,
    7892,
    7892,
    7892,
    7892,
    7892,
    7892,
    7892,
    7892,
    7892,
    7892,
    7892,
    7892,
    7892,
    7892,
    7892,
    7892,
    7892,
    7892,
    7892,
    7892,
    7892
   ],
   "height": 30,
   "id": 1,
   "name": "snow",
   "opacity": 1,
   "type": "tilelayer",
   "visible": true,
   "width": 40,
   "x": 0,
   "y": 0
  },
  {
   "data": [
    0,
    0,
    0,
    0,
    0,
    0,
    0,
    0,
    0,
    0,
    0,
    0,
    0,
    0,
    0,
    0,
    0,
    0,
    0,
    0,
    0,
    0,
    0,
    0,
    0,
    0,
    0,
    0,
    0,
    0,
    0,
    0,
    0,
    0,
    0,
    0,
    0,
    0,
    0,
    0,
    0,
    0,
    0,
    0,
    0,
    0,
    0,
    0,
    0,
    0,
    0,
    0,
    0,
    0,
    0,
    0,
    0,
    0,
    0,
    0,
    0,
    0,
    0,
    0,
    0,
    0,
    0,
    0,
    0,
    0,
    0,
    0,
    0,
    0,
    0,
    0,
    0,
    0,
    0,
    0,
    0,
    0,
    0,
    0,
    0,
    0,
    0,
    0,
    0,
    0,
    0,
    0,
    0,
    0,
    0,
    0,
    0,
    0,
    0,
    0,
    0,
    0,
    0,
    0,
    0,
    0,
    0,
    0,
    0,
    0,
    0,
    0,
    0,
    0,
    0,
    0,
    0,
    0,
    0,
    0,
    0,
    0,
    0,
    0,
    0,
    0,
    0,
    0,
    0,
    0,
    0,
    0,
    0,
    0,
    0,
    0,
    0,
    0,
    0,
    0,
    0,
    0,
    0,
    0,
    0,
    0,
    0,
    0,
    0,
    0,
    0,
    0,
    0,
    0,
    0,
    0,
    0,
    0,
    0,
    0,
    0,
    0,
    0,
    0,
    0,
    0,
    0,
    0,
    0,
    0,
    0,
    0,
    0,
    0,
    0,
    0,
    0,
    0,
    0,
    0,
    0,
    0,
    0,
    0,
    0,
    0,
    0,
    0,
    0,
    0,
    0,
    0,
    0,
    0,
    0,
    0,
    0,
    0,
    0,
    0,
    0,
    0,
    0,
    0,
    0,
    0,
    0,
    0,
    0,
    0,
    0,
    0,
    0,
    0,
    0,
    0,
    0,
    0,
    0,
    0,
    0,
    0,
    0,
    0,
    0,
    0,
    0,
    0,
    0,
    0,
    0,
    0,
    0,
    0,
    0,
    0,
    0,
    0,
    0,
    0,
    0,
    0,
    0,
    0,
    0,
    0,
    0,
    0,
    0,
    0,
    0,
    0,
    0,
    0,
    0,
    0,
    0,
    0,
    0,
    0,
    0,
    0,
    0,
    0,
    0,
    0,
    0,
    0,
    0,
    0,
    0,
    0,
    0,
    0,
    0,
    0,
    0,
    0,
    0,
    0,
    0,
    0,
    0,
    0,
    0,
    0,
    0,
    0,
    0,
    0,
    0,
    0,
    0,
    0,
    0,
    0,
    0,
    0,
    0,
    0,
    0,
    0,
    0,
    0,
    0,
    0,
    0,
    0,
    0,
    0,
    0,
    0,
    0,
    0,
    0,
    0,
    0,
    0,
    0,
    0,
    0,
    0,
    0,
    0,
    0,
    0,
    0,
    0,
    0,
    0,
    0,
    0,
    0,
    0,
    0,
    0,
    0,
    0,
    0,
    0,
    0,
    0,
    0,
    0,
    0,
    0,
    0,
    0,
    0,
    0,
    0,
    0,
    0,
    0,
    0,
    0,
    0,
    0,
    0,
    0,
    0,
    0,
    0,
    0,
    0,
    0,
    0,
    0,
    0,
    0,
    0,
    0,
    0,
    0,
    0,
    0,
    0,
    0,
    0,
    0,
    0,
    0,
    0,
    0,
    0,
    0,
    0,
    0,
    0,
    0,
    0,
    0,
    0,
    0,
    0,
    0,
    0,
    0,
    0,
    0,
    0,
    0,
    0,
    0,
    0,
    0,
    0,
    0,
    0,
    0,
    0,
    0,
    0,
    0,
    0,
    0,
    0,
    0,
    0,
    0,
    0,
    0,
    0,
    0,
    0,
    0,
    0,
    0,
    0,
    0,
    0,
    0,
    0,
    0,
    0,
    0,
    0,
    0,
    0,
    0,
    0,
    0,
    0,
    0,
    0,
    0,
    0,
    0,
    0,
    0,
    0,
    0,
    0,
    0,
    0,
    0,
    0,
    0,
    0,
    0,
    0,
    0,
    0,
    0,
    0,
    0,
    0,
    0,
    0,
    0,
    0,
    0,
    0,
    0,
    0,
    0,
    0,
    0,
    0,
    0,
    0,
    0,
    0,
    0,
    0,
    0,
    0,
    0,
    0,
    0,
    0,
    0,
    0,
    0,
    0,
    0,
    0,
    0,
    0,
    0,
    0,
    0,
    0,
    0,
    0,
    0,
    0,
    0,
    0,
    0,
    0,
    0,
    0,
    0,
    0,
    0,
    0,
    0,
    0,
    0,
    0,
    0,
    0,
    0,
    0,
    0,
    0,
    0,
    0,
    0,
    0,
    0,
    0,
    0,
    0,
    0,
    0,
    0,
    0,
    0,
    0,
    0,
    0,
    0,
    0,
    0,
    0,
    0,
    0,
    0,
    0,
    0,
    0,
    0,
    0,
    0,
    0,
    0,
    0,
    0,
    0,
    0,
    0,
    0,
    0,
    0,
    0,
    0,
    0,
    0,
    0,
    0,
    0,
    0,
    0,
    0,
    0,
    0,
    0,
    0,
    0,
    0,
    0,
    0,
    0,
    0,
    0,
    0,
    0,
    0,
    0,
    0,
    0,
    0,
    0,
    0,
    0,
    0,
    0,
    0,
    0,
    0,
    0,
    0,
    0,
    0,
    0,
    0,
    0,
    0,
    0,
    0,
    0,
    0,
    0,
    0,
    0,
    0,
    0,
    0,
    0,
    0,
    0,
    0,
    0,
    0,
    0,
    0,
    0,
    0,
    0,
    0,
    0,
    0,
    0,
    0,
    0,
    0,
    0,
    0,
    0,
    0,
    0,
    0,
    0,
    0,
    0,
    0,
    0,
    0,
    0,
    0,
    0,
    0,
    0,
    0,
    0,
    0,
    0,
    0,
    0,
    0,
    0,
    0,
    0,
    0,
    0,
    0,
    0,
    0,
    0,
    0,
    0,
    0,
    0,
    0,
    0,
    0,
    0,
    0,
    0,
    0,
    0,
    0,
    0,
    0,
    0,
    0,
    0,
    0,
    0,
    0,
    0,
    0,
    0,
    0,
    0,
    0,
    0,
    0,
    0,
    0,
    0,
    0,
    0,
    0,
    0,
    0,
    0,
    0,
    0,
    0,
    0,
    0,
    0,
    0,
    0,
    0,
    0,
    0,
    0,
    0,
    0,
    0,
    0,
    0,
    0,
    0,
    0,
    0,
    0,
    0,
    0,
    0,
    0,
    0,
    0,
    0,
    0,
    0,
    0,
    0,
    0,
    0,
    0,
    0,
    0,
    0,
    0,
    0,
    0,
    0,
    0,
    0,
    0,
    0,
    0,
    0,
    0,
    0,
    0,
    0,
    0,
    0,
    0,
    0,
    0,
    0,
    0,
    0,
    0,
    0,
    0,
    0,
    0,
    0,
    0,
    0,
    0,
    0,
    0,
    0,
    0,
    0,
    0,
    0,
    0,
    0,
    0,
    0,
    0,
    0,
    0,
    0,
    0,
    0,
    0,
    0,
    0,
    0,
    0,
    0,
    0,
    0,
    0,
    0,
    0,
    0,
    0,
    0,
    0,
    0,
    0,
    0,
    0,
    0,
    0,
    0,
    0,
    0,
    0,
    0,
    0,
    0,
    0,
    0,
    0,
    0,
    0,
    0,
    0,
    0,
    0,
    0,
    0,
    0,
    0,
    0,
    0,
    0,
    0,
    0,
    0,
    0,
    0,
    0,
    0,
    0,
    0,
    0,
    0,
    0,
    0,
    0,
    0,
    0,
    0,
    0,
    0,
    0,
    0,
    0,
    0,
    0,
    0,
    0,
    0,
    0,
    0,
    0,
    0,
    0,
    0,
    0,
    0,
    0,
    0,
    0,
    0,
    0,
    0,
    0,
    0,
    0,
    0,
    0,
    0,
    0,
    0,
    0,
    0,
    0,
    0,
    0,
    0,
    0,
    0,
    0,
    0,
    0,
    0,
    0,
    0,
    0,
    0,
    0,
    0,
    0,
    0,
    0,
    0,
    0,
    0,
    0,
    0,
    0,
    0,
    0,
    0,
    0,
    0,
    0,
    0,
    0,
    0,
    0,
    0,
    0,
    0,
    0,
    0,
    0,
    0,
    0,
    0,
    0,
    0,
    0,
    0,
    0,
    0,
    0,
    0,
    0,
    0,
    0,
    0,
    0,
    0,
    0,
    0,
    0,
    0,
    0,
    0,
    0,
    0,
    0,
    0,
    0,
    0,
    0,
    0,
    0,
    0,
    0,
    0,
    0,
    0,
    0,
    0,
    0,
    0,
    0,
    0,
    0,
    0,
    0,
    0,
    0,
    0,
    0,
    0,
    0,
    0,
    0,
    0,
    0,
    0,
    0,
    0,
    0,
    0,
    0,
    0,
    0,
    0,
    0,
    0,
    0,
    0,
    0,
    0,
    0,
    0,
    0,
    0,
    0,
    0,
    0,
    0,
    0,
    0,
    0,
    0,
    0,
    0,
    0,
    0,
    0,
    0,
    0,
    0,
    0,
    0,
    0,
    0,
    0,
    0,
    0,
    0,
    0,
    0,
    0,
    0,
    0,
    0,
    0,
    0,
    0,
    0,
    0,
    0,
    0,
    0,
    0,
    0,
    0,
    0,
    0,
    0,
    0,
    0,
    0,
    0,
    0,
    0,
    0,
    0,
    0,
    0,
    0,
    0,
    0,
    0,
    0,
    0,
    0,
    0,
    0,
    0,
    0,
    0,
    0,
    0,
    0,
    0,
    0,
    0,
    0,
    0,
    0,
    0,
    0,
    0,
    0,
    0,
    0,
    0,
    0,
    0,
    0,
    0,
    0,
    0,
    0,
    0,
    0,
    0,
    0,
    0,
    0,
    0,
    0,
    0,
    0,
    0,
    0,
    0,
    0,
    0,
    0,
    0,
    0,
    0,
    0,
    0,
    0,
    0,
    0,
    0,
    0,
    0,
    0,
    0,
    0,
    0,
    0,
    0,
    0,
    0,
    0,
    0,
    0,
    0,
    0,
    0,
    0,
    0,
    0,
    0,
    0,
    0,
    0,
    0,
    0,
    0,
    0,
    0,
    0,
    0,
    0,
    0,
    0,
    0,
    0,
    0,
    0,
    0,
    0,
    0,
    0,
    0,
    0,
    0,
    0,
    0,
    0,
    0,
    0,
    0,
    0,
    0,
    0,
    0,
    0,
    0,
    0,
    0,
    0,
    0,
    0,
    0,
    0,
    0,
    0,
    0,
    0,
    0,
    0,
    0,
    0,
    0,
    0,
    0,
    0,
    0,
    0,
    0,
    0
   ],
   "height": 30,
   "id": 2,
   "name": "ground",
   "opacity": 1,
   "type": "tilelayer",
   "visible": true,
   "width": 40,
   "x": 0,
   "y": 0
  },
  {
   "draworder": "topdown",
   "id": 3,
   "name": "Collisions",
   "objects": [],
   "opacity": 1,
   "type": "objectgroup",
   "visible": true,
   "x": 0,
   "y": 0
  }
 ]
}